frontend/public/assets/material-icons/tobimake.svg

<svg xmlns="http://www.w3.org/2000/svg" viewBox="0 0 32 32"><path fill="#757575" d="M15 2H6a2.006 2.006 0 0 0-2 2v22a2.006 2.006 0 0 0 2 2h6v-4H6v-2h6v-2H6v-2h6v-2H6v-2h6v-2h2V4l8 8h2v-1Z"/><path fill="#c2185b" d="M12 12v18h18V12Zm8 6h-2v8h-2v-8h-2v-2h6Zm8 8h-6V16h2v8h4Z"/></svg>

<svg xmlns="http://www.w3.org/2000/svg" viewBox="0 0 32 32">
  <path d="M15,2H6A2.00587,2.00587,0,0,0,4,4V26a2.00591,2.00591,0,0,0,2,2h6V24H6V22h6V20H6V18h6V16H6V14h6V12h2V4l8,8h2V11Z" style="fill: #757575"/>
  <path d="M12,12V30H30V12Zm8,6H18v8H16V18H14V16h6Zm8,8H22V16h2v8h4Z" style="fill: #c2185b"/>
</svg>
